Numix-Light/16/status/indicator-keyboard-Lt-6.svg

<?xml version="1.0" encoding="UTF-8" standalone="no"?>
<svg
   xmlns:dc="http://purl.org/dc/elements/1.1/"
   xmlns:cc="http://creativecommons.org/ns#"
   xmlns:rdf="http://www.w3.org/1999/02/22-rdf-syntax-ns#"
   xmlns:svg="http://www.w3.org/2000/svg"
   xmlns="http://www.w3.org/2000/svg"
   xmlns:sodipodi="http://sodipodi.sourceforge.net/DTD/sodipodi-0.dtd"
   xmlns:inkscape="http://www.inkscape.org/namespaces/inkscape"
   viewBox="0 0 16 16"
   id="svg2"
   version="1.1"
   inkscape:version="0.91 r13725"
   sodipodi:docname="indicator-keyboard-Lt-6.svg">
  <metadata
     id="metadata14">
    <rdf:RDF>
      <cc:Work
         rdf:about="">
        <dc:format>image/svg+xml</dc:format>
        <dc:type
           rdf:resource="http://purl.org/dc/dcmitype/StillImage" />
      </cc:Work>
    </rdf:RDF>
  </metadata>
  <defs
     id="defs12" />
  <sodipodi:namedview
     pagecolor="#ffffff"
     bordercolor="#666666"
     borderopacity="1"
     objecttolerance="10"
     gridtolerance="10"
     guidetolerance="10"
     inkscape:pageopacity="0"
     inkscape:pageshadow="2"
     inkscape:window-width="640"
     inkscape:window-height="480"
     id="namedview10"
     showgrid="false"
     inkscape:zoom="14.75"
     inkscape:cx="8"
     inkscape:cy="8"
     inkscape:window-x="65"
     inkscape:window-y="24"
     inkscape:window-maximized="0"
     inkscape:current-layer="svg2" />
  <path
     style="fill:#353535;fill-opacity:1"
     d="M 1.5996094 0 C 0.71320937 2.9605947e-16 0 0.71320937 0 1.5996094 L 0 14.400391 C 2.9605947e-16 15.286791 0.71320937 16 1.5996094 16 L 14.400391 16 C 15.286791 16 16 15.286791 16 14.400391 L 16 1.5996094 C 16 0.71320937 15.286791 0 14.400391 0 L 1.5996094 0 z M 2.9316406 4.859375 L 3.5429688 4.859375 L 3.5429688 10.564453 L 6.4785156 10.564453 L 6.4785156 11.095703 L 2.9316406 11.095703 L 2.9316406 4.859375 z M 7.9628906 4.9667969 L 7.9628906 6.4433594 L 9.8164062 6.4433594 L 9.8164062 6.9375 L 7.9628906 6.9375 L 7.9628906 9.4121094 C 7.9628906 9.6761094 7.9833906 9.8925467 8.0253906 10.060547 C 8.0733906 10.222547 8.1386563 10.349453 8.2226562 10.439453 C 8.3066562 10.529453 8.4092969 10.589141 8.5292969 10.619141 C 8.6492969 10.649141 8.7817813 10.664063 8.9257812 10.664062 C 9.1717812 10.664062 9.3695313 10.636031 9.5195312 10.582031 C 9.6695313 10.522031 9.7870937 10.469875 9.8710938 10.421875 L 10.013672 10.90625 C 9.9296717 10.96025 9.7842188 11.023703 9.5742188 11.095703 C 9.3642187 11.161703 9.1346719 11.195312 8.8886719 11.195312 C 8.6006719 11.195312 8.3581563 11.159891 8.1601562 11.087891 C 7.9681562 11.009891 7.8114063 10.894141 7.6914062 10.744141 C 7.5774062 10.588141 7.4972188 10.397922 7.4492188 10.169922 C 7.4012187 9.9419217 7.3769531 9.671375 7.3769531 9.359375 L 7.3769531 5.0742188 L 7.9628906 4.9667969 z M 12.798828 8.8242188 L 12.822266 9.1464844 C 12.584366 9.1620844 12.364909 9.1993125 12.162109 9.2578125 C 11.963209 9.3124125 11.784906 9.4005844 11.628906 9.5214844 C 11.472906 9.6384843 11.341628 9.7893625 11.236328 9.9765625 C 11.131028 10.163763 11.060484 10.394969 11.021484 10.667969 C 11.126784 10.613369 11.252191 10.566344 11.400391 10.527344 C 11.548591 10.484444 11.7073 10.462891 11.875 10.462891 C 12.0934 10.462891 12.277588 10.498159 12.429688 10.568359 C 12.581788 10.634659 12.705228 10.722838 12.798828 10.835938 C 12.892428 10.949038 12.961006 11.080316 13.003906 11.228516 C 13.046806 11.376716 13.068359 11.533466 13.068359 11.697266 C 13.068359 11.849366 13.044847 12.000244 12.998047 12.152344 C 12.951247 12.304444 12.876791 12.443559 12.775391 12.568359 C 12.677891 12.689259 12.552491 12.789187 12.400391 12.867188 C 12.252191 12.945188 12.075841 12.984375 11.869141 12.984375 C 11.444041 12.984375 11.120737 12.835463 10.898438 12.539062 C 10.680037 12.238762 10.570313 11.821409 10.570312 11.287109 C 10.570312 10.495409 10.760372 9.8958281 11.138672 9.4863281 C 11.520872 9.0768281 12.073428 8.8554188 12.798828 8.8242188 z M 11.839844 10.794922 C 11.660444 10.794922 11.501734 10.816475 11.365234 10.859375 C 11.232634 10.898375 11.109188 10.9454 10.992188 11 C 10.984388 11.0663 10.980469 11.119203 10.980469 11.158203 L 10.980469 11.292969 C 10.980469 11.476269 10.992225 11.650653 11.015625 11.814453 C 11.042925 11.978253 11.087997 12.121294 11.154297 12.246094 C 11.224497 12.370894 11.316587 12.470822 11.429688 12.544922 C 11.542788 12.615122 11.687781 12.650391 11.863281 12.650391 C 12.007581 12.650391 12.131022 12.624919 12.232422 12.574219 C 12.333822 12.519619 12.414162 12.449081 12.476562 12.363281 C 12.538963 12.277481 12.584028 12.177553 12.611328 12.064453 C 12.642528 11.951353 12.658203 11.833784 12.658203 11.708984 C 12.658203 11.396984 12.587666 11.165778 12.447266 11.017578 C 12.310766 10.869378 12.108944 10.794922 11.839844 10.794922 z "
     id="path4" />
</svg>

<svg xmlns="http://www.w3.org/2000/svg" viewBox="0 0 16 16">
 <path d="m 1.6 0 c -0.886 0 -1.6 0.713 -1.6 1.6 l 0 12.801 c 0 0.886 0.713 1.6 1.6 1.6 l 12.801 0 c 0.886 0 1.6 -0.713 1.6 -1.6 l 0 -12.801 c 0 -0.886 -0.713 -1.6 -1.6 -1.6 l -12.801 0 z m 1.332 4.859 l 0.611 0 l 0 5.705 l 2.936 0 l 0 0.531 l -3.547 0 l 0 -6.236 z m 5.03 0.107 l 0 1.477 l 1.854 0 l 0 0.494 l -1.854 0 l 0 2.475 c 0 0.264 0.021 0.48 0.063 0.648 c 0.048 0.162 0.113 0.289 0.197 0.379 c 0.084 0.09 0.187 0.15 0.307 0.18 c 0.12 0.03 0.252 0.045 0.396 0.045 c 0.246 0 0.444 -0.028 0.594 -0.082 c 0.15 -0.06 0.268 -0.112 0.352 -0.16 l 0.143 0.484 c -0.084 0.054 -0.229 0.117 -0.439 0.189 c -0.21 0.066 -0.44 0.1 -0.686 0.1 c -0.288 0 -0.531 -0.035 -0.729 -0.107 c -0.192 -0.078 -0.349 -0.194 -0.469 -0.344 c -0.114 -0.156 -0.194 -0.346 -0.242 -0.574 c -0.048 -0.228 -0.072 -0.499 -0.072 -0.811 l 0 -4.285 l 0.586 -0.107 z m 4.836 3.857 l 0.023 0.322 c -0.238 0.016 -0.457 0.053 -0.66 0.111 c -0.199 0.055 -0.377 0.143 -0.533 0.264 c -0.156 0.117 -0.287 0.268 -0.393 0.455 c -0.105 0.187 -0.176 0.418 -0.215 0.691 c 0.105 -0.055 0.231 -0.102 0.379 -0.141 c 0.148 -0.043 0.307 -0.064 0.475 -0.064 c 0.218 0 0.403 0.035 0.555 0.105 c 0.152 0.066 0.276 0.154 0.369 0.268 c 0.094 0.113 0.162 0.244 0.205 0.393 c 0.043 0.148 0.064 0.305 0.064 0.469 c 0 0.152 -0.024 0.303 -0.07 0.455 c -0.047 0.152 -0.121 0.291 -0.223 0.416 c -0.098 0.121 -0.223 0.221 -0.375 0.299 c -0.148 0.078 -0.325 0.117 -0.531 0.117 c -0.425 0 -0.748 -0.149 -0.971 -0.445 c -0.218 -0.3 -0.328 -0.718 -0.328 -1.252 c 0 -0.792 0.19 -1.391 0.568 -1.801 c 0.382 -0.409 0.935 -0.631 1.66 -0.662 z m -0.959 1.971 c -0.179 0 -0.338 0.022 -0.475 0.064 c -0.133 0.039 -0.256 0.086 -0.373 0.141 c -0.008 0.066 -0.012 0.119 -0.012 0.158 l 0 0.135 c 0 0.183 0.012 0.358 0.035 0.521 c 0.027 0.164 0.072 0.307 0.139 0.432 c 0.07 0.125 0.162 0.225 0.275 0.299 c 0.113 0.07 0.258 0.105 0.434 0.105 c 0.144 0 0.268 -0.025 0.369 -0.076 c 0.101 -0.055 0.182 -0.125 0.244 -0.211 c 0.062 -0.086 0.107 -0.186 0.135 -0.299 c 0.031 -0.113 0.047 -0.231 0.047 -0.355 c 0 -0.312 -0.071 -0.543 -0.211 -0.691 c -0.137 -0.148 -0.338 -0.223 -0.607 -0.223 z" style="fill:#353535;fill-opacity:1"/>
</svg>
